packages/kaspersky-hexa-ui-icons/src/iconsSVGs/24/YandexColor.svg

<svg width="24" height="24" viewBox="0 0 24 24" fill="none" xmlns="http://www.w3.org/2000/svg">
<path fill-rule="evenodd" clip-rule="evenodd" d="M22 12C22 17.5228 17.5228 22 12 22C6.47715 22 2 17.5228 2 12C2 6.47715 6.47715 2 12 2C17.5228 2 22 6.47715 22 12ZM13.4233 18.2776H15.6185V18.2739H15.6037V5.72059H12.4305C9.2444 5.72059 7.56134 7.36283 7.56134 9.777C7.56134 11.7087 8.48545 12.8536 10.1277 14.0264L7.27186 18.2758H9.63223L12.8054 13.5161L11.7013 12.772C10.3615 11.8757 9.71388 11.1724 9.71388 9.65453C9.71388 8.31662 10.6528 7.42035 12.4454 7.42035H13.4233V18.2776Z" fill="#FC3F1D"/>
</svg>

<svg xmlns="http://www.w3.org/2000/svg" width="24" height="24" fill="none" viewBox="0 0 24 24"><path fill="#fc3f1d" fill-rule="evenodd" d="M22 12c0 5.5228-4.4772 10-10 10S2 17.5228 2 12 6.4772 2 12 2s10 4.4772 10 10m-8.5767 6.2776h2.1952v-.0037h-.0148V5.7206h-3.1732c-3.1861 0-4.8692 1.6422-4.8692 4.0564 0 1.9317.9242 3.0766 2.5664 4.2494l-2.8558 4.2494h2.3603l3.1732-4.7597-1.1041-.7441c-1.3398-.8963-1.9874-1.5996-1.9874-3.1175 0-1.3379.9389-2.2342 2.7315-2.2342h.9779z" clip-rule="evenodd"/></svg>
